sass/icons/active-symbols/volatility/bull market/ic-marketbull.svg

<svg width="32" height="32" viewBox="0 0 32 32" fill="none" xmlns="http://www.w3.org/2000/svg">
<circle cx="24" cy="24" r="8" fill="#0E0E0E"/>
<path d="M27.9721 19.5557C27.9721 19.5557 29.1704 22.1234 26.6597 22.2946L26.4885 21.8951C26.3173 21.5528 25.9179 21.3245 25.5755 21.4387L24.0349 21.8381H23.9778L22.4943 21.4957C22.0948 21.3816 21.6954 21.6098 21.5242 21.9522L21.3531 22.2946C18.8424 22.1234 20.0407 19.5557 20.0407 19.5557C16.7311 22.4658 20.4401 23.7781 20.4401 23.7781L20.8966 23.2646L20.5542 24.0349L20.2118 24.8052L21.3531 25.1476L22.0378 27.0306C22.1519 27.43 22.209 27.8295 22.1519 28.2289L22.0948 28.6854L23.3502 29.8266H23.8067H24.2061H24.7196L25.975 28.6854L25.9179 28.1718C25.8608 27.7724 25.9179 27.373 26.032 26.9735L26.6597 25.1476L27.8009 24.8052L27.0591 23.2646L27.5156 23.7781C27.5156 23.7781 31.2816 22.4658 27.9721 19.5557Z" fill="white"/>
<path d="M32 0H24V2H28.5857L19 11.5858L14 6.58579L0 20.5857V23.4142L14 9.41421L19 14.4142L30 3.41421V8H32V0Z" fill="#85ACB0"/>
</svg>

<svg width="32" height="32" fill="none" xmlns="http://www.w3.org/2000/svg"><circle cx="24" cy="24" r="8" fill="#0E0E0E"/><path d="M27.972 19.556s1.198 2.567-1.312 2.739l-.172-.4c-.17-.342-.57-.57-.912-.456l-1.541.4h-.057l-1.484-.343c-.4-.114-.799.114-.97.456l-.17.343c-2.512-.172-1.313-2.74-1.313-2.74-3.31 2.91.4 4.223.4 4.223l.456-.513-.343.77-.342.77 1.141.343.685 1.883c.114.399.171.799.114 1.198l-.057.456 1.255 1.142h1.37l1.255-1.142-.057-.513c-.057-.4 0-.799.114-1.198l.628-1.826 1.14-.343-.74-1.54.456.513s3.766-1.312.456-4.222z" fill="#fff"/><path d="M32 0h-8v2h4.586L19 11.586l-5-5-14 14v2.828l14-14 5 5 11-11V8h2V0z" fill="#85ACB0"/></svg>
